X:1
T: Sutherland
C:
R:Strathspey
Q: 128
K:A
M:4/4
L:1/16
|:e2fg a3f ec3 a4|e2fg a3c e4 a4|e2fg a3f ec3 a4|dB3 =g3B d4 f4|
e2fg a3f ec3 a4|e2fg a3c e4 a4|e2fg a3f ec3 a4|dB3 =g3B d4 f4|
e3A c3A e3A c4|e3A c3A e2fg a4|e3A c3A e3A c3A|dB3 =g3B d4 f4|
e3A c3A e3A c4|e3A c3A e2fg a4|e3A c3A e3A c3A|dB3 =g3B d4 f4:|
